!!!!SEGMENT: pl-wnifc--6022-n--002_elsner-jozef--oda-o-elizie-eliza-wczoray-ostro-spoyrzala.krn
!!!cenid: 18xx:3919
!!!COM: Elsner, Józef
!!!COM-rismID: pe30000957
!!!CDT: 1769/06/01-1854/04/18
!!!CNT: Polish
!!!OTL: Oda o Elizie/Eliza wczoray ostro spoyrzała
!!!PDT:
!!!AGN:
!!!SMS-siglum: PL-Wnifc
!!!SMS-shelfmark: 6022/n
!!!SMS-shelfwork: 002 W
!!!SMS-variant:
!!!SMS-altvar:
!!!NIFC-rismSourceID: 1001134345
!!!NIFC-islandoraID: nifc:212599
!!!URL-pdf-islandora: https://repozytorium.nifc.pl/islandora/object/nifc%3A212599/datastream/PDF/view
!!!URL-scan: https://polish.musicsources.pl/pl/lokalizacje/galeria/druki-muzyczne/16849 @EN{Scan on Polish Music Sources Website} @PL{Skany w portalu Dziedzictwo Muzyki Polskiej w otwartym dostępie}
!!!ONB-nifc: UWAGA: s. 6-7
!!!AIN: 2 clavi 1 vox
!!!key: B-
**kern	**kern	**dynam	**kern	**text	**text
*part3	*part2	*part2	*part1	*part1	*part1
*staff3	*staff2	*	*staff1	*staff1	*staff1
*I"Klawikord.	*I"Klawikord.	*	*I"[Voce]	*	*
*I'clavicordo	*I'clavicordo	*	*I'V	*	*
*ICklav	*ICklav	*	*ICvox	*	*
*Iclavi	*Iclavi	*	*Ivox	*	*
*clefF4	*clefG2	*	*clefG2	*	*
*k[b-e-]	*k[b-e-]	*	*k[b-e-]	*	*
*B-:	*B-:	*	*B-:	*	*
*M2/4	*M2/4	*	*M2/4	*	*
=1	=1	=1	=1	=1	=1
!	!	!	!LO:TX:a:B:t=Larghetto	!	!
(16B-\LL 16d	4r	.	2r	.	.
16f\)	.	.	.	.	.
!LO:TX:a:i:t=dolce	!	!	!	!	!
16B-\ 16d	.	.	.	.	.
16f\JJ	.	.	.	.	.
*rep	*	*	*	*	*
(16B-\LL 16d	16r	.	.	.	.
!	!LO:TX:t=P:problem: obiegnik przekreślony	!	!	!	!
16f\)	16ffsS\LL	.	.	.	.
16B-\ 16d	16bb-\	.	.	.	.
16f\JJ	16aa\JJ	.	.	.	.
*Xrep	*	*	*	*	*
=2	=2	=2	=2	=2	=2
!	!	!	!LO:TX:a:i:t=Oda o Elizie przez F. Kniaźnina z Muzyką J. Elsnera	!	!
(16E-\LL 16G	(16ff#X\LL	.	2r	.	.
16c\)	16gg\	.	.	.	.
16E-\ 16G	16aa\	.	.	.	.
16c\JJ	16gg\JJ)	.	.	.	.
*rep	*	*	*	*	*
(16E-\LL 16G	16ffn\LL	.	.	.	.
16c\)	16ee-\JJ	.	.	.	.
!	!LO:TUP:a:problem:klamra łukowa	!	!	!	!
16E-\ 16G	24dd\LL	.	.	.	.
.	24ee-\	.	.	.	.
16c\JJ	.	.	.	.	.
.	24cc\JJ	.	.	.	.
*Xrep	*	*	*	*	*
=3	=3	=3	=3	=3	=3
(16F\LL 16B-	8.b-\L 8.dd	.	2r	.	.
16d\)	.	.	.	.	.
16F\ 16B-	.	.	.	.	.
16d\JJ	16b-\Jk 16dd	.	.	.	.
.	(>16qqdd/	>	.	.	.
(16F\LL 16c	16a\LL 16cc	.	.	.	.
16e-\)	16bn\	.	.	.	.
16F\ 16c	16cc\)	.	.	.	.
16e-\JJ	16ff\JJ	]]	.	.	.
=	=	=	=	=	=
(16B-\LL 16d	8b-\L	.	4r	.	.
16f\)	.	.	.	.	.
16B-\ 16d	8ddd\	.	.	.	.
16f\JJ	.	.	.	.	.
*	*clefF4	*	*	*	*
8B-\ 8d	8BB-/J	f	8r	.	.
=4!|:	=4!|:	=4!|:	=4!|:	=4!|:	=4!|:
8r	8r	.	8f/	E-	Nie
*	*clefG2	*	*	*	*
=5	=5	=5	=5	=5	=5
4BBB-/ 4BB-	16r	.	4.b-\	-li-	moż-
.	16d/LL 16f	p	.	.	.
.	(16c#X/ 16en	.	.	.	.
.	16d/JJ 16f	.	.	.	.
4r	16c#/LL 16e	.	.	.	.
.	16d/ 16f	.	.	.	.
.	16cn/ 16e-X	.	8cc\	-za	-na
.	16f/JJ)	.	.	.	.
=6	=6	=6	=6	=6	=6
*2\right	*	*	*	*	*
2BBB-/ 2BB-	(16B-/LL 16d	.	4dd\	wczo-	by-
.	16f/	.	.	.	.
.	16B-/ 16d	.	.	.	.
.	16f/JJ)	.	.	.	.
*	*rep	*	*	*	*
.	(16B-/LL 16d	.	4b-\	-ray	-ło
.	16f/	.	.	.	.
.	16B-/ 16d	.	.	.	.
.	16f/JJ)	.	.	.	.
*	*Xrep	*	*	*	*
!!LO:LB:g=original	!	!	!	!	!
=7	=7	=7	=7	=7	=7
4FF/	(16c/LL 16e-	.	8a/L	o-	gnie-
.	16f/	.	.	.	.
.	16c/ 16e-	.	8f/J	-stro	.
.	16f/JJ)	.	.	.	.
*	*rep	*	*	*	*
4F\	(16c/LL 16e-	.	8g/	.	-wu
.	16f/	.	.	.	.
.	16c/ 16e-	.	8a/	spoy-	od-
.	16f/JJ)	.	.	.	.
*	*Xrep	*	*	*	*
=8	=8	=8	=8	=8	=8
4BB-/	(16B-/LL 16d	.	4b-/	-rza-	-wro-
.	16f/	.	.	.	.
.	16B-/ 16d	.	.	.	.
.	16f/JJ)	.	.	.	.
*	*rep	*	*	*	*
4r	(16B-/LL 16d	.	8f/	-ła.	-ćić
.	16f/	.	.	.	.
.	16B-/ 16d	.	8r	.	.
.	16f/JJ)	.	.	.	.
*	*Xrep	*	*	*	*
=9	=9	=9	=9	=9	=9
!LO:TX:t=P:problem:2/left	!	!	!	!	!
[2FFF/ [2FF	(16A/LL 16c	.	4cc\	mo-	i
.	16f/	.	.	.	.
.	16A/ 16c	.	.	.	.
.	16f/JJ)	.	.	.	.
*	*rep	*	*	*	*
.	(16A/LL 16c	.	8ff\	-zem	bła-
.	16f/	.	.	.	.
.	16A/ 16c	.	8cc\	dał	-gać
.	16f/JJ)	.	.	.	.
*	*Xrep	*	*	*	*
=10	=10	=10	=10	=10	=10
2FFF/_ 2FF_	(16B-/LL 16d	.	8.dd\L	po-	sro-
.	16f/	.	.	.	.
.	16B-/ 16d	.	.	.	.
.	16f/JJ)	.	32ee-\LL	.	.
.	.	.	32dd\JJJ	.	.
.	16A/LL 16c	.	8cc\	-wod	-giey
.	16f/	.	.	.	.
.	16G/ 16B-	.	8b-\	u-	nie-
.	16f/JJ	.	.	.	.
=11	=11	=11	=11	=11	=11
.	.	.	8qqdd/	.	.
2FFF/] 2FF_	(16F/LL 16A	.	4cc\	-ra-	-smia-
.	16f/	.	.	.	.
.	16G/ 16B-	.	.	.	.
.	16f/JJ	.	.	.	.
.	16A/LL 16c	.	8cc\	-zy.	-łem.
.	16f/	.	.	.	.
.	16B-/ 16d	.	8r	.	.
.	16f/JJ)	.	.	.	.
=12	=12	=12	=12	=12	=12
4FFF/ 4FF]	16c/LL 16e-	.	4r	.	.
.	16f/	.	.	.	.
.	16Bn/ 16d	.	.	.	.
.	16f/JJ	.	.	.	.
4r	16c/LL 16e-	.	8r	.	.
.	16f/	.	.	.	.
.	16A/ 16c	.	8f/	ci-	po-
.	16f/JJ	.	.	.	.
=13	=13	=13	=13	=13	=13
4BBB-/ 4BB-	16r	.	4.b-\	-sne-	-sze-
.	(16d/LL 16f	.	.	.	.
.	16c#X/ 16en	.	.	.	.
.	16d/JJ 16f	.	.	.	.
4r	16c#/LL 16e	.	.	.	.
.	16d/ 16f	.	.	.	.
.	.	.	32qqcc/LLL	.	.
.	.	.	32qqb-/	.	.
.	.	.	32qqa/	.	.
.	.	.	32qqb-/JJJ	.	.
.	16cn/ 16e-X	.	8cc\	-ła	-dłem
.	16f/JJ)	.	.	.	.
=14	=14	=14	=14	=14	=14
4BBB-/ 4BB-	(16B-/LL 16d	.	(16dd\LL	wian-	smu-
.	16f/	.	16ff\	.	.
.	16B-/ 16d	.	16ee-\	.	.
.	16f/JJ)	.	16dd\JJ	.	.
*	*rep	*	*	*	*
4AAA-X/ 4AA-X	(16B-/LL 16d	.	16cc\LL)	.	.
.	16f/	.	16b-\JJ	.	.
.	16B-/ 16d	.	16cc\LL	-kiem	-tny
.	16f/JJ)	.	16dd\JJ	.	.
*	*Xrep	*	*	*	*
!!LO:LB:g=original	!	!	!	!	!
=15	=15	=15	=15	=15	=15
4GGG/ 4GG	(16B-/LL 16e-	.	4ee-\	rą-	z so-
.	16g/	.	.	.	.
.	16B-/ 16e-	.	.	.	.
.	16g/JJ	.	.	.	.
(4DD/	16B-/LL) 16f	.	8ff\	-czka	-bą
.	16b-/	.	.	.	.
.	16B-/ 16f	.	8ff\	ley	się
.	16b-/JJ	.	.	.	.
=16	=16	=16	=16	=16	=16
!	!	!	!LO:TUP:a:problem:klamra łukowa	!	!
4EE-/)	16e-/LL 16g	.	12gg\L	bia-	kło-
.	16b-/	.	.	.	.
.	.	.	12ff\	.	.
.	16e-/ 16g	.	.	.	.
.	.	.	12ee-\J	.	.
.	16b-/JJ	.	.	.	.
8GGG/L 8GG	16e-/LL 16g	.	8ee-\	-ła;	-cić;
!	!LO:TX:b:Bi:t=rf	!	!	!	!
.	16cc/	.	.	.	.
8GGG-X/J 8GG-X	16B-/ 16d-X	.	8een\	przy-	i
.	16en/JJ	.	.	.	.
=17	=17	=17	=17	=17	=17
!LO:TX:t=P:problem:2/left	!	!	!	!	!
[2FFF/ 2FF	(16B-/LL 16dn	p	8.ff\L	-gry-	no
.	16f/	.	.	.	.
.	16B-/ 16d	.	.	.	.
.	16f/JJ)	.	32ee-X\LL	.	.
.	.	.	32dd\JJJ	.	.
*	*rep	*	*	*	*
.	(16B-/LL 16d	.	4dd\	-zła	tę
.	16f/	.	.	.	.
.	16B-/ 16d	.	.	.	.
.	16f/JJ)	.	.	.	.
*	*Xrep	*	*	*	*
=18	=18	=18	=18	=18	=18
2FFF/] 2FF	(16A/LL 16c 16e-	.	8cc\L	war-	ca-
.	16f/	.	.	.	.
.	16A/ 16c 16e-	.	8bn\J	.	.
.	16f/JJ)	.	.	.	.
*	*rep	*	*	*	*
.	(16A/LL 16c 16e-	.	8cc\	-gę	-łą
.	16f/	.	.	.	.
.	16A/ 16c 16e-	.	8ff\	pięć	nie
.	16f/JJ)	.	.	.	.
*	*Xrep	*	*	*	*
=19	=19	=19	=19	=19	=19
.	.	.	8qqcc/	.	.
8BBB-/L 8BB-	(16B-/LL 16d	.	4b-X\	ra-	spa-
.	16f/	.	.	.	.
8BBB-/J 8BB-	16B-/ 16d	.	.	.	.
.	16f/JJ)	.	.	.	.
8BBB-/ 8BB-	16B-/ 16d	.	8b-\	-zy.	-łem.
!	!LO:TX:t=P:problem: obiegnik przekreślony	!	!	!	!
.	(16ffsS\LL	.	.	.	.
8r	16bb-\	mf	8r	.	.
.	16ddd\JJ)	.	.	.	.
=20	=20	=20	=20	=20	=20
8r	(16bbn\LL	.	2r	.	.
.	16ccc\	.	.	.	.
8F\L 8c 8e-	16bb-X\	.	.	.	.
.	16aa\JJ)	.	.	.	.
8F\ 8c 8e-	16gg\LL	<	.	.	.
.	16ff\	.	.	.	.
8F\J 8c 8e-	16gg\	.	.	.	.
.	16aa\JJ	[	.	.	.
=21	=21	=21	=21	=21	=21
(16B-\LL 16d	4bb-\	f	2r	.	.
16f\	.	.	.	.	.
16B-\) 16d	.	.	.	.	.
16f\JJ	.	.	.	.	.
8B-\ 8d	16r	.	.	.	.
!	!LO:TX:t=P:problem: obiegnik przekreślony	!	!	!	!
.	(16ffsS\LL	.	.	.	.
8r	16bb-\	.	.	.	.
.	16ddd\JJ)	.	.	.	.
=22	=22	=22	=22	=22	=22
8r	(16bbn\LL	.	2r	.	.
.	16ccc\	.	.	.	.
8F\L 8c 8e-	16bb-X\	.	.	.	.
.	16aa\JJ)	<	.	.	.
8F\ 8c 8e-	16gg\LL	.	.	.	.
.	16ff\	[	.	.	.
8F\J 8c 8e-	16gg\	.	.	.	.
.	16aa'\JJ	.	.	.	.
!!LO:PB:g=original	!	!	!	!	!
=	=	=	=	=	=
16B-\LL 16d	8b-\L	.	4.r	.	.
16f\	.	.	.	.	.
16B-\ 16d	8ddd\	.	.	.	.
16f\JJ	.	.	.	.	.
*	*clefF4	*	*	*	*
8B-\ 8d	8BB-/J	.	.	.	.
=23:|!	=23:|!	=23:|!	=23:|!	=23:|!	=23:|!
8r	8r	.	8f/	dziś	.
*	*clefG2	*	*	*	*
=24	=24	=24	=24	=24	=24
4BBB-/ 4BB-	16r	.	4.b-\	lu-	.
.	(16d/LL 16f	p	.	.	.
.	16c#X/ 16en	.	.	.	.
.	16d/JJ 16f	.	.	.	.
4r	16c#/LL 16e	.	.	.	.
.	16d/ 16f	.	.	.	.
.	16cn/) 16e-X	.	8cc\	-bym	.
.	16f/JJ	.	.	.	.
=25	=25	=25	=25	=25	=25
!LO:TX:t=P:problem:2/left	!	!	!	!	!
2BBB-/ 2BB-	(16B-/LL 16d	.	4dd\	sa-	.
.	16f/	.	.	.	.
.	16B-/ 16d	.	.	.	.
.	16f/JJ)	.	.	.	.
*	*rep	*	*	*	*
.	(16B-/LL 16d	.	8b-\	-ma	.
.	16f/	.	.	.	.
.	16B-/ 16d	.	8b-\	wi-	.
.	16f/JJ)	.	.	.	.
*	*Xrep	*	*	*	*
=26	=26	=26	=26	=26	=26
4FF/	(16c/LL 16e-	.	8a/L	-ta-	.
.	16f/	.	.	.	.
.	16c/) 16e-	.	8f/J	.	.
.	16f/JJ	.	.	.	.
*	*rep	*	*	*	*
4F\	(16c/LL 16e-	.	8g/L	-iąc	.
.	16f/	.	.	.	.
.	16c/) 16e-	.	8a/J	.	.
.	16f/JJ	.	.	.	.
*	*Xrep	*	*	*	*
=27	=27	=27	=27	=27	=27
4BB-/	(16B-/LL 16d	.	4b-/	gło-	.
.	16f/	.	.	.	.
.	16B-/ 16d	.	.	.	.
.	16f/JJ)	.	.	.	.
*	*rep	*	*	*	*
4r	(16B-/LL 16d	.	8f/	-sem,	.
.	16f/	.	.	.	.
.	16B-/ 16d	.	8r	.	.
.	16f/JJ)	.	.	.	.
*	*Xrep	*	*	*	*
=28	=28	=28	=28	=28	=28
!LO:TX:t=P:problem:2/left	!	!	!	!	!
2FFF/ [2FF	(16A/LL 16c	.	4cc\	o-	.
.	16f/	.	.	.	.
.	16A/ 16c	.	.	.	.
.	16f/JJ)	.	.	.	.
*	*rep	*	*	*	*
.	(16A/LL 16c	.	8ff\	-czy	.
.	16f/	.	.	.	.
.	16A/ 16c	.	8ee-\	wró-	.
.	16f/JJ)	.	.	.	.
*	*Xrep	*	*	*	*
=29	=29	=29	=29	=29	=29
2FFF/ 2FF_	16B-/LL 16d	.	8.dd\L	-ci-	.
.	16f/	.	.	.	.
.	16B-/ 16d	.	.	.	.
.	16f/JJ	.	32ee-\LL	.	.
.	.	.	32dd\JJJ	.	.
.	(16A/LL 16c	.	8cc\L	-ła	.
.	16f/	.	.	.	.
.	16G/ 16B-	.	8b-\J	mi	.
.	16f/JJ	.	.	.	.
=30	=30	=30	=30	=30	=30
2FFF/ 2FF_	16F/LL 16A	.	4cc\	swo-	.
.	16f/	.	.	.	.
.	16G/) 16B-	.	.	.	.
.	16f/JJ	.	.	.	.
.	16A/LL 16c	.	8cc\	-ie!	.
.	16f/	.	.	.	.
.	16B-/ 16d	.	8r	.	.
.	16f/JJ	.	.	.	.
!!LO:LB:g=original	!	!	!	!	!
=31	=31	=31	=31	=31	=31
4FFF/ 4FF]	16A/LL 16c	.	4r	.	.
.	16f/	.	.	.	.
.	(16Bn/ 16d	.	.	.	.
.	16f/JJ	.	.	.	.
4r	16c/LL 16e-	.	8r	.	.
.	16f/	.	.	.	.
.	16A/) 16c	.	8f/	mię	.
.	16f/JJ	.	.	.	.
=32	=32	=32	=32	=32	=32
4BBB-/ 4BB-	16r	.	4b-\	cie-	.
.	16d/LL 16f	.	.	.	.
.	(16c#X/ 16en	.	.	.	.
.	16d/JJ 16f	.	.	.	.
.	.	.	32qqdd/LLL	.	.
.	.	.	32qqcc/	.	.
.	.	.	32qqb-/	.	.
.	.	.	32qqcc/JJJ	.	.
4r	16c#/LL 16e	.	8cc\	-szy	.
.	16d/ 16f	.	.	.	.
.	16cn/) 16e-X	.	8r	.	.
.	16f/JJ	.	.	.	.
=33	=33	=33	=33	=33	=33
4BBB-/ 4BB-	16B-/LL 16d	.	16dd\LL	słod-	.
.	16f/	.	16ff\	.	.
.	16B-/ 16d	.	16ee-\	.	.
.	16f/JJ	.	16dd\JJ	.	.
*	*rep	*	*	*	*
4AAA-X/ 4AA-X	16B-/LL 16d	.	16cc\LL	-kim	.
.	16f/	.	16b-\JJ	.	.
.	16B-/ 16d	.	16cc\LL	na-	.
.	16f/JJ	.	16dd\JJ	.	.
*	*Xrep	*	*	*	*
=34	=34	=34	=34	=34	=34
4GGG/ 4GG	16B-/LL 16e-	.	4ee-\	-dzie-	.
.	16g/	.	.	.	.
.	16B-/ 16e-	.	.	.	.
.	16g/JJ	.	.	.	.
(4DD/	16B-/LL 16f	.	4ff\	-ią	.
.	16b-/	.	.	.	.
.	16B-/ 16f	.	.	.	.
.	16b-/JJ	.	.	.	.
=35	=35	=35	=35	=35	=35
!	!	!	!LO:TUP:a:problem:klamra łukowa	!	!
8EE-/L)	16e-/LL 16g	.	12gg\L	lo-	.
.	16b-/	.	.	.	.
.	.	.	12ff\	.	.
8EE-/J	16e-/ 16g	.	.	.	.
.	.	.	12ee-\J	.	.
.	16b-/JJ	.	.	.	.
8EE-/	8e-/ 8g	.	8ee-\	-sem;	.
8r;	8r;	.	8r;	.	.
=36	=36	=36	=36	=36	=36
(8EEny/L 8En	(16d-X/LL	p	2r	.	.
.	16b-/	.	.	.	.
8FF/ 8F	16d-/	.	.	.	.
.	16b-/JJ	.	.	.	.
!LO:TX:b:Bi:t=rf	!	!	!	!	!
8GG-y/ 8G-X	16d-/LL	.	.	.	.
.	16b-/	.	.	.	.
8FF/J) 8F	16d-/)	.	.	.	.
.	16b-/JJ	.	.	.	.
=37	=37	=37	=37	=37	=37
!LO:TX:t=P:problem:2/left	!	!	!	!	!
(2GG/ 2Gn	(16d-X/LL 16en	.	4een\	a-	.
.	16b-/	.	.	.	.
.	16d-/ 16e	.	.	.	.
.	16b-/JJ)	.	.	.	.
*	*rep	*	*	*	*
.	(16d-/LL 16e	.	8ee\	-le	.
.	16b-/	.	.	.	.
.	16d-/ 16e	.	8ee\	się	.
.	16b-/JJ)	.	.	.	.
*	*Xrep	*	*	*	*
=38	=38	=38	=38	=38	=38
4FF/) 4F	16dn/LL 16f	.	(4ff\	iu-	.
.	(16b-/	.	.	.	.
.	16d/ 16f	.	.	.	.
.	16b-/JJ	.	.	.	.
4FF/ 4F	16c/LL) 16e-	.	8a/)	-tro	.
.	16a/	.	.	.	.
.	16c/ 16e-	.	8a/	znów	.
.	16a/JJ	.	.	.	.
!!LO:LB:g=original	!	!	!	!	!
=39	=39	=39	=39	=39	=39
.	.	.	8qqcc/	.	.
8BBB-/L 8BB-	16d/LL 16f	.	4b-\	bo-	.
.	16b-/	.	.	.	.
8BBB-/ 8BB-	16d/ 16f	.	.	.	.
.	16b-/JJ	.	.	.	.
8BBB-/J 8BB-	16d/ 16f	.	8b-\	-ię.	.
!	!LO:TX:t=P:problem: obiegnik przekreślony	!	!	!	!
.	16ffsS\LL	p	.	.	.
8r	16bb-\	.	8r	.	.
.	16ddd\JJ	.	.	.	.
=40	=40	=40	=40	=40	=40
8r	(16bbn\LL	.	2r	.	.
.	16ccc\	.	.	.	.
8F\L 8c 8e-	16bb-X\	.	.	.	.
.	16aa\JJ)	.	.	.	.
8F\ 8c 8e-	16gg\LL	<	.	.	.
.	16ff\	.	.	.	.
8F\J 8c 8e-	16gg\	[	.	.	.
.	16aa\JJ	.	.	.	.
=41	=41	=41	=41	=41	=41
16B-\LL 16d	4bb-\	f	2r	.	.
16f\	.	.	.	.	.
16B-\ 16d	.	.	.	.	.
16f\JJ	.	.	.	.	.
8B-\ 8d	16r	.	.	.	.
!	!LO:TX:t=P:problem: obiegnik przekreślony	!	!	!	!
.	16ffsS\LL	p	.	.	.
8r	16bb-\	.	.	.	.
.	16ddd\JJ	.	.	.	.
=42	=42	=42	=42	=42	=42
8r	16bbn\LL	.	2r	.	.
.	(16ccc\	.	.	.	.
8F\L 8c 8e-	16bb-X\	.	.	.	.
.	16aa\JJ	.	.	.	.
8F\ 8c 8e-	16gg\LL)	.	.	.	.
.	16ff\	.	.	.	.
8F\J 8c 8e-	16gg\	<	.	.	.
.	16aa\JJ	.	.	.	.
=43	=43	=43	=43	=43	=43
16B-\LL 16d	8bb-\	.	2r	.	.
16f\	.	[	.	.	.
16B-\ 16d	8r	.	.	.	.
16f\JJ	.	.	.	.	.
*rep	*	*	*	*	*
16B-\LL 16d	8ddd\	f	.	.	.
16f\	.	.	.	.	.
16B-\ 16d	8r	.	.	.	.
16f\JJ	.	.	.	.	.
*Xrep	*clefF4	*	*	*	*
=44	=44	=44	=44	=44	=44
4B-\ 4d	4BB-/	.	2r	.	.
4r	4r	.	.	.	.
==	==	==	==	==	==
*-	*-	*-	*-	*-	*-
!!!system-decoration: [(s1){(s2,s3)}]
!!!RDF**kern: > = above
!!!RDF**kern: < = below
!!!ENC: Solarz Mateusz
!!!END: 2022-07-26
!!!ENC: Jan Barakat
!!!END: 2022-08-24
!!!YEC: Copyright 2022 Narodowy Instytut Fryderyka Chopina (https://polishscores.org)
!!!YEM: Licence CC BY 4.0 (https://creativecommons.org/licenses/by/4.0)
